src/pos-icons/video-input-scart.svg

<svg height="24" viewBox="0 0 24 24" width="24" xmlns="http://www.w3.org/2000/svg"><path d="m20.6 2.2-3.3.2-3.5 2-.5-.9-11.3 6.5v7h1v2c0 1.1.9 2 2 2h10c1.1 0 2-.9 2-2v-2h1v-7h-1l-.2-.4 3.5-2 1.8-2.8zm-5.6 14.8v2h-10v-2z"/></svg>

<?xml version="1.0" encoding="UTF-8"?><!DOCTYPE svg PUBLIC "-//W3C//DTD SVG 1.1//EN" "http://www.w3.org/Graphics/SVG/1.1/DTD/svg11.dtd"><svg xmlns="http://www.w3.org/2000/svg" xmlns:xlink="http://www.w3.org/1999/xlink" version="1.1" id="mdi-video-input-scart" width="24" height="24" viewBox="0 0 24 24"><path d="M20.6 2.2L17.3 2.4L13.8 4.4L13.3 3.5L2 10V17H3V19C3 20.1 3.9 21 5 21H15C16.1 21 17 20.1 17 19V17H18V10H17L16.8 9.6L20.3 7.6L22.1 4.8L20.6 2.2M15 17V19H5V17H15Z" /></svg>
